icons/desktop/16/svg/bookmark-16.svg

<svg width="16" height="16" viewBox="0 0 16 16" fill="none" xmlns="http://www.w3.org/2000/svg">
<path d="M6.37419 1.60254C6.95905 0.132444 9.04136 0.132365 9.62614 1.60254L10.8507 4.68067L14.1574 4.89551L14.3019 4.91016C15.7742 5.11924 16.3418 7.0082 15.1613 7.98731L12.6125 10.1035L13.4308 13.3145V13.3154C13.8206 14.848 12.1375 16.0712 10.8 15.2256L7.99919 13.4561L5.19938 15.2256C3.86311 16.0702 2.17723 14.8492 2.5695 13.3145L3.38688 10.1035L0.838053 7.98828C-0.380176 6.97659 0.264308 4.99779 1.84196 4.89453H1.84294L5.14762 4.68067L6.37419 1.60254ZM8.23161 2.15723C8.15878 1.9742 7.92279 1.95097 7.80876 2.08789L7.76774 2.15723L6.36637 5.67676C6.25917 5.94555 6.00674 6.12882 5.71794 6.14746L1.93962 6.3916C1.7136 6.40667 1.62249 6.68975 1.79606 6.83399L4.71012 9.25293C4.93288 9.43789 5.02965 9.73505 4.95817 10.0156L4.02262 13.6855C3.96711 13.9027 4.20695 14.0792 4.3986 13.958L7.59977 11.9346L7.69352 11.8838C7.92046 11.7822 8.1864 11.7994 8.40055 11.9346L11.6017 13.958L11.675 13.9902C11.8476 14.0343 12.0252 13.8771 11.9767 13.6855L11.0422 10.0156C10.9707 9.73503 11.0674 9.43788 11.2902 9.25293L14.2043 6.83399L14.257 6.77442C14.339 6.64543 14.2811 6.46675 14.1388 6.41016L14.0607 6.39258L10.2814 6.14746C9.99263 6.12872 9.7401 5.94559 9.63297 5.67676L8.23258 2.15723H8.23161Z" fill="black"/>
</svg>

<!-- This Source Code Form is subject to the terms of the Mozilla Public
   - License, v. 2.0. If a copy of the MPL was not distributed with this
   - file, You can obtain one at http://mozilla.org/MPL/2.0/. -->
<svg xmlns="http://www.w3.org/2000/svg" width="16" height="16" fill="context-fill" fill-opacity="context-fill-opacity" viewBox="0 0 16 16">
    <path d="M6.374 1.603c.585-1.47 2.667-1.47 3.252 0l1.225 3.078 3.306.215.145.014c1.472.21 2.04 2.098.86 3.077l-2.55 2.117.819 3.21v.001c.39 1.533-1.293 2.756-2.631 1.91L8 13.457l-2.8 1.77c-1.337.844-3.023-.377-2.63-1.912l.817-3.21L.838 7.988C-.38 6.977.264 4.998 1.842 4.895l3.306-.214zm1.858.554a.25.25 0 0 0-.423-.07l-.041.07-1.402 3.52a.75.75 0 0 1-.648.47l-3.778.245a.25.25 0 0 0-.144.442L4.71 9.253c.223.185.32.482.248.763l-.935 3.67a.25.25 0 0 0 .376.272l3.2-2.023.095-.051a.75.75 0 0 1 .707.05l3.2 2.024.074.032a.25.25 0 0 0 .302-.305l-.935-3.67a.75.75 0 0 1 .248-.762l2.914-2.419.053-.06a.252.252 0 0 0-.118-.364l-.078-.017-3.78-.246a.75.75 0 0 1-.648-.47z" />
</svg>
